Simply-Black-Circles/scalable/places/folder-important.svg

<svg xmlns="http://www.w3.org/2000/svg" width="48" height="48" viewBox="0 0 12.7 12.7"><path fill="#1a1a1a" d="M6.34.07a6.29 6.29 0 0 0-6.29 6.3 6.29 6.29 0 0 0 6.3 6.28 6.29 6.29 0 0 0 6.28-6.29A6.29 6.29 0 0 0 6.34.07zm-.01.94a5.4 5.4 0 0 1 5.4 5.4 5.4 5.4 0 0 1-5.4 5.41 5.4 5.4 0 0 1-5.41-5.4A5.4 5.4 0 0 1 6.32 1zm.06 1.19a.72.72 0 0 0-.75.6.93.93 0 0 0-.01.16c.17 1.67.37 3.32.51 5h.47c.12-1.61.31-3.2.45-4.81.07-.38-.12-.83-.52-.93a.65.65 0 0 0-.15-.02zm-.05 6.77a.69.69 0 0 0-.47.18.76.76 0 0 0-.3.59c0 .5.54.89 1 .73a.77.77 0 0 0 .46-1.09.78.78 0 0 0-.7-.41z"/></svg>

<?xml version="1.0" encoding="UTF-8" standalone="no"?>
<svg
   xmlns:dc="http://purl.org/dc/elements/1.1/"
   xmlns:cc="http://creativecommons.org/ns#"
   xmlns:rdf="http://www.w3.org/1999/02/22-rdf-syntax-ns#"
   xmlns:svg="http://www.w3.org/2000/svg"
   xmlns="http://www.w3.org/2000/svg"
   xmlns:sodipodi="http://sodipodi.sourceforge.net/DTD/sodipodi-0.dtd"
   xmlns:inkscape="http://www.inkscape.org/namespaces/inkscape"
   width="48"
   height="48"
   viewBox="0 0 12.7 12.7"
   version="1.1"
   id="svg4"
   sodipodi:docname="folder-important.svg"
   inkscape:version="0.92.4 (5da689c313, 2019-01-14)">
  <metadata
     id="metadata10">
    <rdf:RDF>
      <cc:Work
         rdf:about="">
        <dc:format>image/svg+xml</dc:format>
        <dc:type
           rdf:resource="http://purl.org/dc/dcmitype/StillImage" />
        <dc:title></dc:title>
      </cc:Work>
    </rdf:RDF>
  </metadata>
  <defs
     id="defs8" />
  <sodipodi:namedview
     pagecolor="#ffffff"
     bordercolor="#666666"
     borderopacity="1"
     objecttolerance="10"
     gridtolerance="10"
     guidetolerance="10"
     inkscape:pageopacity="0"
     inkscape:pageshadow="2"
     inkscape:window-width="1085"
     inkscape:window-height="480"
     id="namedview6"
     showgrid="false"
     inkscape:zoom="4.9166667"
     inkscape:cx="2.1355932"
     inkscape:cy="24"
     inkscape:window-x="0"
     inkscape:window-y="25"
     inkscape:window-maximized="0"
     inkscape:current-layer="svg4" />
  <path
     d="M 6.34,0.07 A 6.29,6.29 0 0 0 0.05,6.37 6.29,6.29 0 0 0 6.35,12.65 6.29,6.29 0 0 0 12.63,6.36 6.29,6.29 0 0 0 6.34,0.07 Z M 6.33,1.01 a 5.4,5.4 0 0 1 5.4,5.4 5.4,5.4 0 0 1 -5.4,5.41 A 5.4,5.4 0 0 1 0.92000003,6.42 5.4,5.4 0 0 1 6.32,1 Z M 6.39,2.2 A 0.72,0.72 0 0 0 5.64,2.8 0.93,0.93 0 0 0 5.63,2.96 C 5.8,4.63 6,6.28 6.14,7.96 H 6.61 C 6.73,6.35 6.92,4.76 7.06,3.15 7.13,2.77 6.94,2.32 6.54,2.22 A 0.65,0.65 0 0 0 6.39,2.2 Z M 6.34,8.97 A 0.69,0.69 0 0 0 5.87,9.15 0.76,0.76 0 0 0 5.57,9.74 c 0,0.5 0.54,0.89 1,0.73 A 0.77,0.77 0 0 0 7.03,9.38 0.78,0.78 0 0 0 6.33,8.97 Z"
     id="path2"
     inkscape:connector-curvature="0"
     style="fill:#1a1a1a" />
</svg>
